apps/24/qbittorrent.svg

<?xml version="1.0" encoding="UTF-8"?>
<svg id="d" width="24" height="24" version="1.1" xmlns="http://www.w3.org/2000/svg" xmlns:cc="http://creativecommons.org/ns#" xmlns:dc="http://purl.org/dc/elements/1.1/" xmlns:rdf="http://www.w3.org/1999/02/22-rdf-syntax-ns#">
	<metadata id="a">
		<rdf:RDF>
			<cc:Work rdf:about="">
				<dc:format>image/svg+xml</dc:format>
				<dc:type rdf:resource="http://purl.org/dc/dcmitype/StillImage"/>
				<dc:title/>
			</cc:Work>
		</rdf:RDF>
	</metadata>
	<defs>
		<style id="current-color-scheme" type="text/css">.ColorScheme-Text {color:#090d11;}.ColorScheme-Background{color:#ffffff;}</style>
	</defs>
	<path id="b" d="m13.5 3-1.5 2h1v7 4h1v-1.1875-2.8125-2.8125-2.4375-1.75h1zm-6 5c-1.933 0-3.5 1.7909-3.5 4s1.567 4 3.5 4c0.5448 0 1.041-0.15705 1.5-0.40625v-1c-0.2937 0.2541-0.6365 0.40625-1 0.40625-1.1046 0-2-1.3431-2-3s0.8954-3 2-3c0.3635 0 0.7063 0.15205 1 0.40625v-1c-0.459-0.2493-0.9552-0.40625-1.5-0.40625zm2.5 0v1.1875 2.8125 2.8125 2.4375 1.75h-1l1.5 2 1.5-2h-1v-7-4zm6.5 0c-0.5448 0-1.041 0.15705-1.5 0.40625v1c0.2937-0.2541 0.6365-0.40625 1-0.40625 1.1046 0 2 1.3431 2 3s-0.8954 3-2 3c-0.3635 0-0.7063-0.15205-1-0.40625v1c0.459 0.2493 0.9552 0.40625 1.5 0.40625 1.933 0 3.5-1.7909 3.5-4s-1.567-4-3.5-4z" style="fill-opacity:.75;fill:currentColor" class="ColorScheme-Text"/>
	<path id="c" d="m14.5 1-2.5 2h2v0.65625l1 1.3438v-2h2zm0.5 4h-1v1.75 2.125 0.3125 0.03125 2.7812 2.7812 0.03125 0.3125 0.875 1h1v-0.875c0.7123 0.5387 1.5706 0.875 2.5 0.875 2.4853 0 4.5-2.2386 4.5-5s-2.0147-5-4.5-5c-0.9294 0-1.7877 0.3363-2.5 0.875zm-8.5 2c-2.4853 0-4.5 2.2386-4.5 5s2.0147 5 4.5 5c0.9294 0 1.7877-0.3363 2.5-0.875v2.875h1v-1.75-2.125-0.3125-0.03125-2.7812-2.7812-0.03125-0.3125-0.875-1h-1v0.875c-0.7123-0.5387-1.5706-0.875-2.5-0.875zm2.5 12v2h-2l2.5 2 2.5-2h-2v-0.65625zm-1.5-11c0.5448 0 1.041 0.15695 1.5 0.40625v1 5.1875 1c-0.459 0.2492-0.9552 0.40625-1.5 0.40625-1.933 0-3.5-1.7909-3.5-4 0-0.2761 0.0165-0.5521 0.0625-0.8125 0.3264-1.8227 1.7461-3.1875 3.4375-3.1875zm9 0c1.933 0 3.5 1.7909 3.5 4 0 0.2761-0.0165 0.5521-0.0625 0.8125-0.3264 1.8227-1.7461 3.1875-3.4375 3.1875-0.5448 0-1.041-0.15705-1.5-0.40625v-1-5.1875-1c0.459-0.2493 0.9552-0.40625 1.5-0.40625z" style="fill-opacity:.5;fill:currentColor"  class="ColorScheme-Background"/>
</svg>

<?xml version="1.0" encoding="UTF-8" standalone="no"?>
<!-- Created with Inkscape (http://www.inkscape.org/) -->

<svg
   xmlns:dc="http://purl.org/dc/elements/1.1/"
   xmlns:cc="http://creativecommons.org/ns#"
   xmlns:rdf="http://www.w3.org/1999/02/22-rdf-syntax-ns#"
   xmlns:svg="http://www.w3.org/2000/svg"
   xmlns="http://www.w3.org/2000/svg"
   xmlns:sodipodi="http://sodipodi.sourceforge.net/DTD/sodipodi-0.dtd"
   xmlns:inkscape="http://www.inkscape.org/namespaces/inkscape"
   width="24"
   height="24"
   id="svg27665"
   version="1.1"
   inkscape:version="0.48.4 r9939"
   sodipodi:docname="qbittorrent.svg">
  <defs
     id="defs27667" />
  <sodipodi:namedview
     id="base"
     pagecolor="#ffffff"
     bordercolor="#666666"
     borderopacity="1.0"
     inkscape:pageopacity="0.0"
     inkscape:pageshadow="2"
     inkscape:zoom="22.627417"
     inkscape:cx="21.400145"
     inkscape:cy="9.9359023"
     inkscape:document-units="px"
     inkscape:current-layer="layer1"
     showgrid="true"
     inkscape:window-width="1920"
     inkscape:window-height="1018"
     inkscape:window-x="-5"
     inkscape:window-y="25"
     inkscape:window-maximized="1"
     inkscape:snap-bbox="true"
     inkscape:bbox-paths="true"
     inkscape:bbox-nodes="true"
     inkscape:snap-bbox-edge-midpoints="true"
     inkscape:snap-bbox-midpoints="true"
     inkscape:object-paths="true"
     inkscape:snap-intersection-paths="true"
     inkscape:object-nodes="true"
     inkscape:snap-smooth-nodes="true"
     inkscape:snap-midpoints="true"
     inkscape:snap-object-midpoints="true"
     inkscape:snap-center="true"
     inkscape:snap-global="true"
     showguides="false"
     inkscape:guide-bbox="true"
     fit-margin-top="0"
     fit-margin-left="0"
     fit-margin-right="0"
     fit-margin-bottom="0"
     inkscape:showpageshadow="false">
    <sodipodi:guide
       orientation="0,1"
       position="599.99999,299.99993"
       id="guide3572" />
    <sodipodi:guide
       orientation="1,0"
       position="294.41949,12.121716"
       id="guide3574" />
    <sodipodi:guide
       orientation="0,1"
       position="456.04389,599.99992"
       id="guide3576" />
    <sodipodi:guide
       orientation="0,1"
       position="-2.8882813e-06,-8.4406273e-05"
       id="guide3578" />
    <sodipodi:guide
       orientation="1,0"
       position="-2.8882813e-06,157.58366"
       id="guide3580" />
    <sodipodi:guide
       orientation="1,0"
       position="599.99999,121.21821"
       id="guide3582" />
    <sodipodi:guide
       orientation="0,1"
       position="599.99999,-714.34359"
       id="guide5928" />
    <sodipodi:guide
       orientation="0,1"
       position="599.99999,-414.34359"
       id="guide5930" />
    <sodipodi:guide
       orientation="0,1"
       position="599.99999,-1014.3435"
       id="guide5932" />
    <sodipodi:guide
       orientation="0,1"
       position="451.57029,524.99606"
       id="guide5294" />
    <sodipodi:guide
       orientation="0,1"
       position="451.57029,75.013516"
       id="guide5296" />
    <sodipodi:guide
       orientation="0,1"
       position="496.01499,-931.36409"
       id="guide5413" />
    <sodipodi:guide
       orientation="0,1"
       position="457.34859,-489.34389"
       id="guide5415" />
    <inkscape:grid
       type="xygrid"
       id="grid3070"
       empspacing="5"
       visible="true"
       enabled="true"
       snapvisiblegridlinesonly="true"
       originx="4.3243213e-05px"
       originy="-2.6947047e-05px" />
  </sodipodi:namedview>
  <metadata
     id="metadata27670">
    <rdf:RDF>
      <cc:Work
         rdf:about="">
        <dc:format>image/svg+xml</dc:format>
        <dc:type
           rdf:resource="http://purl.org/dc/dcmitype/StillImage" />
        <dc:title />
      </cc:Work>
    </rdf:RDF>
  </metadata>
  <g
     inkscape:label="Camada 1"
     inkscape:groupmode="layer"
     id="layer1"
     transform="translate(3364.4171,-2092.7186)">
    <path
       style="color:#000000;fill:#f1f3f5;fill-opacity:0.90288714000000003;fill-rule:nonzero;stroke:none;stroke-width:2;marker:none;visibility:visible;display:inline;overflow:visible;enable-background:accumulate"
       d="M 14.5 1 L 12 3 L 14 3 L 14 3.65625 L 15 5 L 15 3 L 17 3 L 14.5 1 z M 15 5 L 14 5 L 14 6.75 L 14 8.875 L 14 9.1875 L 14 9.21875 L 14 12 L 14 14.78125 L 14 14.8125 L 14 15.125 L 14 16 L 14 17 L 15 17 L 15 16.125 C 15.7123 16.6637 16.5706 17 17.5 17 C 19.9853 17 22 14.7614 22 12 C 22 9.2386 19.9853 7 17.5 7 C 16.5706 7 15.7123 7.3363 15 7.875 L 15 5 z M 6.5 7 C 4.0147 7 2 9.2386 2 12 C 2 14.7614 4.0147 17 6.5 17 C 7.4294 17 8.2877 16.6637 9 16.125 L 9 19 L 10 19 L 10 17.25 L 10 15.125 L 10 14.8125 L 10 14.78125 L 10 12 L 10 9.21875 L 10 9.1875 L 10 8.875 L 10 8 L 10 7 L 9 7 L 9 7.875 C 8.2877 7.3363 7.4294 7 6.5 7 z M 9 19 L 9 21 L 7 21 L 9.5 23 L 12 21 L 10 21 L 10 20.34375 L 9 19 z M 7.5 8 C 8.0448 8 8.541 8.15695 9 8.40625 L 9 9.40625 L 9 14.59375 L 9 15.59375 C 8.541 15.84295 8.0448 16 7.5 16 C 5.567 16 4 14.2091 4 12 C 4 11.7239 4.0165 11.4479 4.0625 11.1875 C 4.3889 9.3648 5.8086 8 7.5 8 z M 16.5 8 C 18.433 8 20 9.7909 20 12 C 20 12.2761 19.9835 12.5521 19.9375 12.8125 C 19.6111 14.6352 18.1914 16 16.5 16 C 15.9552 16 15.459 15.84295 15 15.59375 L 15 14.59375 L 15 9.40625 L 15 8.40625 C 15.459 8.15695 15.9552 8 16.5 8 z "
       transform="translate(-3364.4171,2092.7186)"
       id="path3772" />
    <path
       style="color:#000000;fill:#27303a;fill-opacity:0.753280819999999968;fill-rule:nonzero;stroke:none;stroke-width:2;marker:none;visibility:visible;display:inline;overflow:visible;enable-background:accumulate"
       d="M 13.5 3 L 12 5 L 13 5 L 13 12 L 13 16 L 14 16 L 14 14.8125 L 14 12 L 14 9.1875 L 14 6.75 L 14 5 L 15 5 L 13.5 3 z M 7.5 8 C 5.567 8 4 9.7909 4 12 C 4 14.2091 5.567 16 7.5 16 C 8.0448 16 8.541 15.84295 9 15.59375 L 9 14.59375 C 8.7063 14.84785 8.3635 15 8 15 C 6.8954 15 6 13.6569 6 12 C 6 10.3431 6.8954 9 8 9 C 8.3635 9 8.7063 9.15205 9 9.40625 L 9 8.40625 C 8.541 8.15695 8.0448 8 7.5 8 z M 10 8 L 10 9.1875 L 10 12 L 10 14.8125 L 10 17.25 L 10 19 L 9 19 L 10.5 21 L 12 19 L 11 19 L 11 12 L 11 8 L 10 8 z M 16.5 8 C 15.9552 8 15.459 8.15705 15 8.40625 L 15 9.40625 C 15.2937 9.15215 15.6365 9 16 9 C 17.1046 9 18 10.3431 18 12 C 18 13.6569 17.1046 15 16 15 C 15.6365 15 15.2937 14.84795 15 14.59375 L 15 15.59375 C 15.459 15.84305 15.9552 16 16.5 16 C 18.433 16 20 14.2091 20 12 C 20 9.7909 18.433 8 16.5 8 z "
       transform="translate(-3364.4171,2092.7186)"
       id="path3805" />
  </g>
</svg>
